!!!OTL: 513. Einsamer Wanderer.
!!!COM: G. E. Poethko
!!!ODT: 1848
!!!ARE: Europa, Mitteleuropa, Deutschland
!!!SCT: B0513
!!!TXL: @@DE
!!!YEM: Copyright 1995, estate of Helmut Schaffrath.
**kern	**text
*ICvox	*
*Ivox	*
*clefG2	*
*M6/8	*
*k[b-e-a-]	*
*E-:	*
!LO:TX:a:t=Munter.	!
{8b-	Der
=1	=1
4b-	Mai
8e-	iſt
8gL	auf
8a-J	.
8b-	dem
=2	=2
4.cc	We-
8b-	-ge,
8r}	.
{8b-	der
=3	=3
4ee-	Mai
8b-	iſt
8gL	vor
8fJ	.
8e-	der
=4	=4
[4.b-	Thür';
8b-]	.
8r}	.
{8b-	in
=5	=5
4cc	Gar-
8b-	-ten,
4cc	auf
8dd	den
=6	=6
4.ff	Wie-
4ee-}	-ſen
{8b-	ihr
=7	=7
4g	Blüm-
8b-	-lein,
4f	kommt
8b-	her-
=8	=8
[4.e-	-für!
8e-]	.
8r}	.
==	==
!!!AGN: Wander - Lied
!!!GTL: Wanderlieder
!!!ONB: ESAC (Essen Associative Code) Database: BOEHME
!!!AMT: compound duple
!!!AIN: vox
!!!EED: Helmut Schaffrath
!!!EEV: 1.0
!!@@COMMENT:"Gedicht von W. Müller 1821. Text ʒuerſt in: "Siebenundſiebʒig Gedichte eines reiſenden
!!Waldhorniſten". Herausg. von W. Müller. Deſſau 1821. S. 77. Melodie von Pöthko 1848.
!!Ʒuerſt wohl in: Deutſches Liederbuch von J. Schanʒ und Perucker. " 1848. Nr. 209. Jetʒt in
!!allen Commersbüchern."
!!@@END:
!!!Text: W. Müller
!!!URL-scan: https://archive.org/details/BoehmeVtLieder1895/page/n409/mode/2up
!!!ENC: Anna Maria Matuszewska
!!!EEV: 2024/11/07
*-	*-
